X:1
T:Title
%%score { 1 | 2 }
L:1/8
M:4/4
K:F
V:1 treble nm="Grand Piano"
V:2 bass 
V:1
 z4 z2[Q:1/4=100] CC | FFFG AFGA | [GB][EG]AB c2 A[EG] | FFF[FA] GFEF | %4
 [EG][EG][EG][FA] [EG]2 [Ec][Ec] | FFFG AFGA | [GB][EG]AB c2 AB | cccd cA[EG]F | %8
[M:7/8] [EG]2 [EA]2 [A,F]3 |[M:1/4] AB |[M:4/4] c2 d2 c3 F | A2 B2 A3 [EG] | FFFF D [DF]2 [=B,DF] | %13
[M:9/8] [EG]2 [FA]- [FA] [EG]2- [EG] [Ec]2 |[M:4/4] FFFG AFGA | [GB][EG]AB c2 A[GB] | %16
 [Ac][Ac][Ac][Bd] [Ac] A2 F |[M:7/8] [EG]2 [EA]2 [A,F]3 |] %18
V:2
 z4 z2 [F,A,][F,A,] | [F,A,C][F,A,C][F,A,C][F,B,C] [F,CF][A,C][G,CE][F,CF] | %2
 [C,C][C,C][K:treble][F,CF][G,CF] [A,CF]2[K:bass] [F,CF][C,B,] | %3
 [D,A,][D,A,][D,A,][D,C] [G,=B,D][G,B,D][G,B,D][G,B,D] | [C,C][C,C][C,C][C,C] [C,C]2 [C,B,][C,B,] | %5
 [F,A,][F,A,][F,A,C][F,B,C] [F,CF][A,C][G,CE][F,CF] | %6
 [C,C][C,C][K:treble][F,CF][G,CF] [A,CF]2[K:bass] [F,C][F,G,C] | %7
 [F,A,F][F,A,F][F,A,F][F,B,F] [F,A,F][F,CF][C,C][D,A,] |[M:7/8] [C,B,]2 [C,C]2 [F,,F,]3 | %9
[M:1/4] [F,C][F,G,C] |[M:4/4] [F,A,F]2 [F,B,F]2 [F,A,F]3 [F,A,C] | [F,CF]2 [F,DF]2 [F,CF]3 [C,B,] | %12
 [D,A,][D,A,][D,A,D][D,A,D] [B,,B,] [B,,B,]2 G,, | %13
[M:9/8] [C,C]2 [C,C]- [C,C] [C,C]2- [C,C] [C,B,]2 | %14
[M:4/4] [F,A,][F,A,][F,A,C][F,B,C] [F,CF][A,C][G,CE][F,CF] | %15
 [C,C][C,C][K:treble][F,CF][G,CF] [A,CF]2[K:bass] [F,CF][F,C] | %16
 [F,F][F,F][F,F][F,F] [F,F] [F,CF]2 [F,A,] |[M:7/8] [C,B,]2 [C,C]2 [F,,F,]3 |] %18

